images/content/johnson-solids/sphenocorona.svg

<?xml version="1.0" encoding="UTF-8"?>
<svg xmlns="http://www.w3.org/2000/svg" xmlns:xlink="http://www.w3.org/1999/xlink" width="245pt" height="200pt" viewBox="0 0 245 200" version="1.2">
<g id="surface1">
<path style=" stroke:none;fill-rule:nonzero;fill:rgb(61.326599%,55.46875%,76.367188%);fill-opacity:1;" d="M 192.890625 77.519531 L 182.328125 188.195312 L 99.554688 139.074219 "/>
<path style="fill:none;stroke-width:7.98;stroke-linecap:round;stroke-linejoin:round;stroke:rgb(0%,0%,0%);stroke-opacity:1;stroke-miterlimit:10;" d="M 1928.90625 1224.804688 L 1823.28125 118.046875 L 995.546875 609.257812 Z M 1928.90625 1224.804688 " transform="matrix(0.1,0,0,-0.1,0,200)"/>
<path style=" stroke:none;fill-rule:nonzero;fill:rgb(79.296875%,63.671875%,68.75%);fill-opacity:1;" d="M 99.554688 139.074219 L 7.234375 97.164062 L 90.007812 26.148438 "/>
<path style="fill:none;stroke-width:7.98;stroke-linecap:round;stroke-linejoin:round;stroke:rgb(0%,0%,0%);stroke-opacity:1;stroke-miterlimit:10;" d="M 995.546875 609.257812 L 72.34375 1028.359375 L 900.078125 1738.515625 Z M 995.546875 609.257812 " transform="matrix(0.1,0,0,-0.1,0,200)"/>
<path style=" stroke:none;fill-rule:nonzero;fill:rgb(83.396912%,80.46875%,82.226562%);fill-opacity:1;" d="M 99.554688 139.074219 L 64.464844 196.933594 L 7.234375 97.164062 "/>
<path style="fill:none;stroke-width:7.98;stroke-linecap:round;stroke-linejoin:round;stroke:rgb(0%,0%,0%);stroke-opacity:1;stroke-miterlimit:10;" d="M 995.546875 609.257812 L 644.648438 30.664062 L 72.34375 1028.359375 Z M 995.546875 609.257812 " transform="matrix(0.1,0,0,-0.1,0,200)"/>
<path style=" stroke:none;fill-rule:nonzero;fill:rgb(67.96875%,53.514099%,68.359375%);fill-opacity:1;" d="M 99.554688 139.074219 L 90.007812 26.148438 L 192.890625 77.519531 "/>
<path style="fill:none;stroke-width:7.98;stroke-linecap:round;stroke-linejoin:round;stroke:rgb(0%,0%,0%);stroke-opacity:1;stroke-miterlimit:10;" d="M 995.546875 609.257812 L 900.078125 1738.515625 L 1928.90625 1224.804688 Z M 995.546875 609.257812 " transform="matrix(0.1,0,0,-0.1,0,200)"/>
<path style=" stroke:none;fill-rule:nonzero;fill:rgb(68.75%,75.389099%,90.039062%);fill-opacity:1;" d="M 182.328125 188.195312 L 64.464844 196.933594 L 99.554688 139.074219 "/>
<path style="fill:none;stroke-width:7.98;stroke-linecap:round;stroke-linejoin:round;stroke:rgb(0%,0%,0%);stroke-opacity:1;stroke-miterlimit:10;" d="M 1823.28125 118.046875 L 644.648438 30.664062 L 995.546875 609.257812 Z M 1823.28125 118.046875 " transform="matrix(0.1,0,0,-0.1,0,200)"/>
<path style=" stroke:none;fill-rule:nonzero;fill:rgb(42.405701%,7.788086%,27.293396%);fill-opacity:1;" d="M 90.007812 26.148438 L 147.535156 15.609375 L 192.890625 77.519531 "/>
<path style="fill:none;stroke-width:7.98;stroke-linecap:round;stroke-linejoin:round;stroke:rgb(0%,0%,0%);stroke-opacity:1;stroke-miterlimit:10;" d="M 900.078125 1738.515625 L 1475.351562 1843.90625 L 1928.90625 1224.804688 Z M 900.078125 1738.515625 " transform="matrix(0.1,0,0,-0.1,0,200)"/>
<path style="fill-rule:nonzero;fill:rgb(24.19281%,51.756287%,91.014099%);fill-opacity:1;stroke-width:7.98;stroke-linecap:round;stroke-linejoin:round;stroke:rgb(0%,0%,0%);stroke-opacity:1;stroke-miterlimit:10;" d="M 589.960938 1066.992188 L 1475.351562 1843.90625 L 900.078125 1738.515625 " transform="matrix(0.1,0,0,-0.1,0,200)"/>
<path style="fill-rule:nonzero;fill:rgb(24.19281%,51.756287%,91.014099%);fill-opacity:1;stroke-width:7.98;stroke-linecap:round;stroke-linejoin:round;stroke:rgb(0%,0%,0%);stroke-opacity:1;stroke-miterlimit:10;" d="M 900.078125 1738.515625 L 72.34375 1028.359375 L 589.960938 1066.992188 " transform="matrix(0.1,0,0,-0.1,0,200)"/>
<path style=" stroke:none;fill-rule:nonzero;fill:rgb(33.909607%,34.202576%,71.679688%);fill-opacity:1;" d="M 239.0625 102.320312 L 182.328125 188.195312 L 192.890625 77.519531 "/>
<path style="fill:none;stroke-width:7.98;stroke-linecap:round;stroke-linejoin:round;stroke:rgb(0%,0%,0%);stroke-opacity:1;stroke-miterlimit:10;" d="M 2390.625 976.796875 L 1823.28125 118.046875 L 1928.90625 1224.804688 Z M 2390.625 976.796875 " transform="matrix(0.1,0,0,-0.1,0,200)"/>
<path style=" stroke:none;fill-rule:nonzero;fill:rgb(0%,0%,0%);fill-opacity:1;" d="M 192.890625 77.519531 L 147.535156 15.609375 L 239.0625 102.320312 "/>
<path style="fill:none;stroke-width:7.98;stroke-linecap:round;stroke-linejoin:round;stroke:rgb(0%,0%,0%);stroke-opacity:1;stroke-miterlimit:10;" d="M 1928.90625 1224.804688 L 1475.351562 1843.90625 L 2390.625 976.796875 Z M 1928.90625 1224.804688 " transform="matrix(0.1,0,0,-0.1,0,200)"/>
<path style=" stroke:none;fill-rule:nonzero;fill:rgb(34.008789%,18.406677%,51.951599%);fill-opacity:1;" d="M 64.464844 196.933594 L 58.996094 93.300781 L 7.234375 97.164062 "/>
<path style="fill:none;stroke-width:7.98;stroke-linecap:round;stroke-linejoin:round;stroke:rgb(0%,0%,0%);stroke-opacity:1;stroke-miterlimit:10;" d="M 644.648438 30.664062 L 589.960938 1066.992188 L 72.34375 1028.359375 Z M 644.648438 30.664062 " transform="matrix(0.1,0,0,-0.1,0,200)"/>
<path style=" stroke:none;fill-rule:nonzero;fill:rgb(19.40918%,0%,0%);fill-opacity:1;" d="M 182.328125 188.195312 L 153.132812 185.285156 L 64.464844 196.933594 "/>
<path style="fill:none;stroke-width:7.98;stroke-linecap:round;stroke-linejoin:round;stroke:rgb(0%,0%,0%);stroke-opacity:1;stroke-miterlimit:10;" d="M 1823.28125 118.046875 L 1531.328125 147.148438 L 644.648438 30.664062 Z M 1823.28125 118.046875 " transform="matrix(0.1,0,0,-0.1,0,200)"/>
<path style=" stroke:none;fill-rule:nonzero;fill:rgb(86.521912%,42.088318%,11.206055%);fill-opacity:1;" d="M 239.0625 102.320312 L 153.132812 185.285156 L 182.328125 188.195312 "/>
<path style="fill:none;stroke-width:7.98;stroke-linecap:round;stroke-linejoin:round;stroke:rgb(0%,0%,0%);stroke-opacity:1;stroke-miterlimit:10;" d="M 2390.625 976.796875 L 1531.328125 147.148438 L 1823.28125 118.046875 Z M 2390.625 976.796875 " transform="matrix(0.1,0,0,-0.1,0,200)"/>
<path style=" stroke:none;fill-rule:nonzero;fill:rgb(53.709412%,34.49707%,56.834412%);fill-opacity:1;" d="M 58.996094 93.300781 L 64.464844 196.933594 L 153.132812 185.285156 "/>
<path style="fill:none;stroke-width:7.98;stroke-linecap:round;stroke-linejoin:round;stroke:rgb(0%,0%,0%);stroke-opacity:1;stroke-miterlimit:10;" d="M 589.960938 1066.992188 L 644.648438 30.664062 L 1531.328125 147.148438 Z M 589.960938 1066.992188 " transform="matrix(0.1,0,0,-0.1,0,200)"/>
<path style="fill-rule:nonzero;fill:rgb(73.4375%,65.625%,77.146912%);fill-opacity:1;stroke-width:7.98;stroke-linecap:round;stroke-linejoin:round;stroke:rgb(0%,0%,0%);stroke-opacity:1;stroke-miterlimit:10;" d="M 1531.328125 147.148438 L 2390.625 976.796875 L 1475.351562 1843.90625 " transform="matrix(0.1,0,0,-0.1,0,200)"/>
<path style="fill-rule:nonzero;fill:rgb(73.4375%,65.625%,77.146912%);fill-opacity:1;stroke-width:7.98;stroke-linecap:round;stroke-linejoin:round;stroke:rgb(0%,0%,0%);stroke-opacity:1;stroke-miterlimit:10;" d="M 1475.351562 1843.90625 L 589.960938 1066.992188 L 1531.328125 147.148438 " transform="matrix(0.1,0,0,-0.1,0,200)"/>
</g>
</svg>

<svg xmlns="http://www.w3.org/2000/svg" width="245pt" height="200pt" viewBox="0 0 245 200" version="1.2"><path style="stroke:none;fill-rule:nonzero;fill:#9c8dc3;fill-opacity:1" d="m192.89 77.52-10.562 110.675-82.773-49.12"/><path style="fill:none;stroke-width:7.98;stroke-linecap:round;stroke-linejoin:round;stroke:#000;stroke-opacity:1;stroke-miterlimit:10" d="M1928.906 1224.805 1823.281 118.047l-827.734 491.21Zm0 0" transform="matrix(.1 0 0 -.1 0 200)"/><path style="stroke:none;fill-rule:nonzero;fill:#caa2af;fill-opacity:1" d="m99.555 139.074-92.32-41.91 82.773-71.016"/><path style="fill:none;stroke-width:7.98;stroke-linecap:round;stroke-linejoin:round;stroke:#000;stroke-opacity:1;stroke-miterlimit:10" d="M995.547 609.258 72.344 1028.359l827.734 710.157Zm0 0" transform="matrix(.1 0 0 -.1 0 200)"/><path style="stroke:none;fill-rule:nonzero;fill:#d5cdd2;fill-opacity:1" d="m99.555 139.074-35.09 57.86-57.23-99.77"/><path style="fill:none;stroke-width:7.98;stroke-linecap:round;stroke-linejoin:round;stroke:#000;stroke-opacity:1;stroke-miterlimit:10" d="M995.547 609.258 644.648 30.664 72.344 1028.36Zm0 0" transform="matrix(.1 0 0 -.1 0 200)"/><path style="stroke:none;fill-rule:nonzero;fill:#ad88ae;fill-opacity:1" d="M99.555 139.074 90.008 26.148 192.89 77.52"/><path style="fill:none;stroke-width:7.98;stroke-linecap:round;stroke-linejoin:round;stroke:#000;stroke-opacity:1;stroke-miterlimit:10" d="m995.547 609.258-95.469 1129.258 1028.828-513.711Zm0 0" transform="matrix(.1 0 0 -.1 0 200)"/><path style="stroke:none;fill-rule:nonzero;fill:#afc0e6;fill-opacity:1" d="m182.328 188.195-117.863 8.739 35.09-57.86"/><path style="fill:none;stroke-width:7.98;stroke-linecap:round;stroke-linejoin:round;stroke:#000;stroke-opacity:1;stroke-miterlimit:10" d="M1823.281 118.047 644.648 30.664l350.899 578.594Zm0 0" transform="matrix(.1 0 0 -.1 0 200)"/><path style="stroke:none;fill-rule:nonzero;fill:#6c1446;fill-opacity:1" d="m90.008 26.148 57.527-10.539 45.356 61.91"/><path style="fill:none;stroke-width:7.98;stroke-linecap:round;stroke-linejoin:round;stroke:#000;stroke-opacity:1;stroke-miterlimit:10" d="m900.078 1738.516 575.274 105.39 453.554-619.101Zm0 0" transform="matrix(.1 0 0 -.1 0 200)"/><path style="fill-rule:nonzero;fill:#3e84e8;fill-opacity:1;stroke-width:7.98;stroke-linecap:round;stroke-linejoin:round;stroke:#000;stroke-opacity:1;stroke-miterlimit:10" d="m589.96 1066.992 885.392 776.914-575.274-105.39" transform="matrix(.1 0 0 -.1 0 200)"/><path style="fill-rule:nonzero;fill:#3e84e8;fill-opacity:1;stroke-width:7.98;stroke-linecap:round;stroke-linejoin:round;stroke:#000;stroke-opacity:1;stroke-miterlimit:10" d="M900.078 1738.516 72.344 1028.359l517.617 38.633" transform="matrix(.1 0 0 -.1 0 200)"/><path style="stroke:none;fill-rule:nonzero;fill:#5657b7;fill-opacity:1" d="m239.063 102.32-56.735 85.875L192.891 77.52"/><path style="fill:none;stroke-width:7.98;stroke-linecap:round;stroke-linejoin:round;stroke:#000;stroke-opacity:1;stroke-miterlimit:10" d="m2390.625 976.797-567.344-858.75 105.625 1106.758Zm0 0" transform="matrix(.1 0 0 -.1 0 200)"/><path style="stroke:none;fill-rule:nonzero;fill:#000;fill-opacity:1" d="m192.89 77.52-45.355-61.91 91.528 86.71"/><path style="fill:none;stroke-width:7.98;stroke-linecap:round;stroke-linejoin:round;stroke:#000;stroke-opacity:1;stroke-miterlimit:10" d="m1928.906 1224.805-453.554 619.101 915.273-867.11Zm0 0" transform="matrix(.1 0 0 -.1 0 200)"/><path style="stroke:none;fill-rule:nonzero;fill:#572f84;fill-opacity:1" d="M64.465 196.934 58.996 93.3 7.234 97.164"/><path style="fill:none;stroke-width:7.98;stroke-linecap:round;stroke-linejoin:round;stroke:#000;stroke-opacity:1;stroke-miterlimit:10" d="m644.648 30.664-54.687 1036.328-517.617-38.633Zm0 0" transform="matrix(.1 0 0 -.1 0 200)"/><path style="stroke:none;fill-rule:nonzero;fill:#310000;fill-opacity:1" d="m182.328 188.195-29.195-2.91-88.668 11.649"/><path style="fill:none;stroke-width:7.98;stroke-linecap:round;stroke-linejoin:round;stroke:#000;stroke-opacity:1;stroke-miterlimit:10" d="m1823.281 118.047-291.953 29.101-886.68-116.484Zm0 0" transform="matrix(.1 0 0 -.1 0 200)"/><path style="stroke:none;fill-rule:nonzero;fill:#dd6b1d;fill-opacity:1" d="m239.063 102.32-85.93 82.965 29.195 2.91"/><path style="fill:none;stroke-width:7.98;stroke-linecap:round;stroke-linejoin:round;stroke:#000;stroke-opacity:1;stroke-miterlimit:10" d="m2390.625 976.797-859.297-829.649 291.953-29.101Zm0 0" transform="matrix(.1 0 0 -.1 0 200)"/><path style="stroke:none;fill-rule:nonzero;fill:#895891;fill-opacity:1" d="m58.996 93.3 5.469 103.634 88.668-11.649"/><path style="fill:none;stroke-width:7.98;stroke-linecap:round;stroke-linejoin:round;stroke:#000;stroke-opacity:1;stroke-miterlimit:10" d="M589.96 1066.992 644.649 30.664l886.68 116.484Zm0 0" transform="matrix(.1 0 0 -.1 0 200)"/><path style="fill-rule:nonzero;fill:#bba7c5;fill-opacity:1;stroke-width:7.98;stroke-linecap:round;stroke-linejoin:round;stroke:#000;stroke-opacity:1;stroke-miterlimit:10" d="m1531.328 147.148 859.297 829.649-915.273 867.11M1475.352 1843.906 589.96 1066.992l941.367-919.844" transform="matrix(.1 0 0 -.1 0 200)"/></svg>
